picto/accessible-left.svg

<svg class="color-immutable" width="24" height="24" viewBox="0 0 24 24" fill="none" xmlns="http://www.w3.org/2000/svg"><path d="M0 22.5V1.5C0 0.675 0.675 0 1.5 0H22.5C23.325 0 24 0.675 24 1.5V22.5C24 23.325 23.325 24 22.5 24H1.5C0.675 24 0 23.325 0 22.5Z" fill="#2D327D"/><path d="M12.892 4.62901C12.892 5.51101 13.607 6.22701 14.49 6.22701C15.372 6.22701 16.088 5.51201 16.088 4.62901C16.088 3.74701 15.373 3.03101 14.49 3.03101C13.608 3.03101 12.892 3.74601 12.892 4.62901Z" fill="white"/><path d="M5.72899 18.083L7.88999 13.002C8.03999 12.65 8.38399 12.422 8.76599 12.422H12.455L12.653 10.834H9.59799C9.27599 10.834 9.01599 10.573 9.01599 10.252C9.01599 9.931 9.27599 9.67001 9.59799 9.67001H12.797L13.039 7.725C13.129 7 13.79 6.48501 14.515 6.57601C15.24 6.66601 15.755 7.327 15.664 8.052L15.03 13.14C15.022 13.201 14.997 13.355 14.997 13.375C14.997 13.901 14.571 14.328 14.044 14.328H9.39599L7.48199 18.829C7.32799 19.191 6.97499 19.409 6.60499 19.409C6.48099 19.409 6.35399 19.384 6.23299 19.333C5.74899 19.127 5.52299 18.567 5.72899 18.083Z" fill="white"/><path d="M8.63198 17.435C9.41798 18.766 10.865 19.659 12.522 19.659C15.016 19.659 17.038 17.637 17.038 15.143C17.038 13.89 16.527 12.756 15.703 11.938L15.883 10.386C17.374 11.441 18.348 13.178 18.348 15.143C18.348 18.36 15.74 20.968 12.523 20.968C10.705 20.968 9.08198 20.135 8.01398 18.831L8.63198 17.435Z" fill="white"/></svg>

<svg class="color-immutable" width="24" height="24" viewBox="0 0 24 24" fill="none" xmlns="http://www.w3.org/2000/svg"><g clip-path="url(#a)"><path d="M0 22.5v-21C0 .675.675 0 1.5 0h21c.825 0 1.5.675 1.5 1.5v21c0 .825-.675 1.5-1.5 1.5h-21C.675 24 0 23.325 0 22.5Z" fill="#2D327D"/><path d="M12.892 4.629a1.598 1.598 0 1 0 3.196 0 1.598 1.598 0 0 0-3.196 0ZM5.729 18.083l2.161-5.081a.952.952 0 0 1 .876-.58h3.689l.198-1.588H9.598a.582.582 0 1 1 0-1.164h3.199l.242-1.945a1.322 1.322 0 1 1 2.625.327l-.634 5.088c-.008.061-.033.215-.033.235a.953.953 0 0 1-.953.953H9.396l-1.914 4.501a.954.954 0 0 1-1.249.504.953.953 0 0 1-.504-1.25Z" fill="#fff"/><path d="M8.632 17.435a4.516 4.516 0 1 0 7.071-5.497l.18-1.552a5.825 5.825 0 1 1-7.869 8.445l.618-1.396Z" fill="#fff"/></g><defs><clipPath id="a"><path fill="#fff" d="M0 0h24v24H0z"/></clipPath></defs></svg>
